X: 09104
T: SHOSHANNA'S JIG
C: Bob McQuillen 2 Mar 92
B: Bob's Note Book 9 p.104
R: jig
Z: 2017 John Chambers <jc:trillian.mit.edu>
N: The last bar has 3 quarter notes, so there's clearly a "typo". I just guessed.
L: 1/8
M: 6/8
K: D
e |\
fdf ede | fdB A2A | GAB AFA | efg e2a |
fdf ede | fdB AFD | GAB AFA | Bdc d2 :|
|: f |\
ecA ecA | gfg ecA | def gag | fdf e2B |
Adc dAF | Adc d2e | fga gec | edd d2 :|
%%begintext align
%% Shoshanna Schwimmer [sp?]
%% is from Hinton, WV, and I met her at Augusta a few years ago
%% whenshe and I were taking Billy McComiskey's class. I was so
%% pleased when she said she really liked one of my tunes (Black
%% Friday", in Bk 3) and I thought she ought to have a tune of her
%% own someday.  Well, today's the day, Shoshanna!
%%endtext
